X:1
T:San Juan, 77.77.77
T:San Juan, 77.77.77
T:Arranged from George F. Handel, 1749
T:Public Domain Courtesy of the Cyber Hymnal™
C:Arranged from George F. Handel, 1749
Z:Public Domain
Z:Courtesy of the Cyber Hymnal™
%%score ( 1 2 ) ( 3 4 )
L:1/8
Q:1/4=107
M:4/4
K:Eb
V:1 treble 
V:2 treble 
V:3 bass 
V:4 bass 
V:1
 [EB]2 E2 [Ge]2 (dc) | [GB]2 c2 F4 | [EG]2 F2 A2 [EG]2 | [CF]2 E2 [DB]4 | [EB]2 E2 [Ge]2 (dc) | %5
 [GB]2 c2 F4 | [EG]2 F2 A2 [EG]2 | [CF]2 E2 [DB]4 | [Ee]2 (dc) [DB]2 [FA]2 | G2 (FE) [B,D]4 | %10
 [EB]2 [Ec]2 [Ad]2 e2 | [EG]2 [DF]2 E4 |] %12
V:2
 x2 E2 A2 x2 | x2 (FE) F4 | x2 F2 (CD) x2 | x2 E2 x4 | x2 E2 A2 x2 | x2 (FE) F4 | x2 F2 (CD) x2 | %7
 x2 E2 x4 | x2 E2 x4 | (ED) C2 x4 | x6 (GF) | x4 E4 |] %12
V:3
 [E,G,]2 [E,G,]2 [E,B,]2 [F,A,]2 | [G,E]2 [A,C]2 [B,D]4 | [E,B,]2 [D,B,]2 [C,A,]2 [B,,B,]2 | %3
 [A,,A,]2 [C,=A,]2 [B,,B,]4 | [E,G,]2 [E,G,]2 [E,B,]2 [F,A,]2 | [G,E]2 [A,C]2 [B,D]4 | %6
 [E,B,]2 [D,B,]2 [C,A,]2 [B,,B,]2 | [A,,A,]2 [C,=A,]2 [B,,B,]4 | %8
 [G,,B,]2 [A,,A,]2 [B,,F,]2 [D,B,]2 | [E,B,]2 (A,G,) [B,,F,]4 | [G,B,]2 A,2 [F,A,]2 [E,A,]2 | %11
 [B,,B,]2 (B,A,) [E,G,]4 |] %12
V:4
 x8 | x8 | x8 | x8 | x8 | x8 | x8 | x8 | x8 | x2 A,,2 x4 | x2 A,2 x4 | x2 B,,2 x4 |] %12

